!!!COM: Palestrina, Giovanni Perluigi da
!!!OPR: Missa Virtute magna
!!!OMD: Sanctus
!!!OTL: Pleni
**kern	**kern	**kern
*Ibass	*Itenor	*Icalto
!Bassus	!Tenor	!Altus
*clefF4	*clefGv2	*clefG2
*k[]	*k[]	*k[]
*G:mix	*G:mix	*G:mix
*M4/2	*M4/2	*M4/2
=42	=42	=42
0r	1.d	0r
.	2A	.
=43	=43	=43
0r	1c	1.g
.	1B	.
.	.	2d
=44	=44	=44
0r	2.A	1f
.	4G	.
.	4A	1e
.	4B	.
.	[2c	.
=45	=45	=45
1.G	2c]	2.d
.	4B	.
.	4A	4c
.	2B	4d
.	.	4e
2D	4A	[2f
.	4G	.
=46	=46	=46
1F	1A	4f]
.	.	4e
.	.	1d
1E	1G	.
.	.	2c#
=47	=47	=47
2.D	2r	1d
.	1d	.
4C	.	.
4D	.	1r
4E	.	.
2F	2A	.
=48	=48	=48
4C	1c	2r
4D	.	.
4E	.	1g
4F	.	.
1G	1B	.
.	.	2d
=49	=49	=49
4F	2.A	1f
4G	.	.
4A	.	.
4B	4G	.
1c	4A	1e
.	4B	.
.	[2c	.
=50	=50	=50
1G	2c]	2.d
.	4B	.
.	4A	4c
1r	4B	4d
.	4c	4e
.	4d	4f
.	4e	4g
=51	=51	=51
2r	1f	0a
1d	.	.
.	2d	.
2A	[2f	.
=52	=52	=52
1c	4f]	2g
.	4e	.
.	2.e	2c
1B	.	2d
.	4d	.
.	[2d	2d
=53	=53	=53
1A	2d]	1e
.	2c	.
2.D	2.f	2.d
4C	4e	4e
=54	=54	=54
4D	2d	4f
4E	.	4g
2F	2c	2.a
1G	2B	.
.	.	4g
.	4A	[2g
.	4G	.
=55	=55	=55
1D	1A	2g]
.	.	2f#
2r	1G	[1g
[2G	.	.
=56	=56	=56
4G]	2r	1g]
4A	.	.
4B	2.G	.
4c	.	.
2d	.	1r
.	4A	.
4G	4B	.
4A	4c	.
=57	=57	=57
4B	2d	0r
4c	.	.
2.d	4G	.
.	4A	.
.	4B	.
4c	4c	.
2B	4d	.
.	4e	.
=58	=58	=58
2.A	4f	0r
.	4g	.
.	2.a	.
4B	.	.
2c	.	.
.	4g	.
2B	[2g	.
=59	=59	=59
1A	2g]	1r
.	2f#	.
[1G	1g	2r
.	.	[2G
=60	=60	=60
0G]	2r	4G]
.	.	4A
.	2.G	4B
.	.	4c
.	.	2d
.	4A	.
.	4B	4G
.	4c	4A
=61	=61	=61
1r	2d	4B
.	.	4c
.	4G	2.d
.	4A	.
2r	4B	.
.	4c	4e
[2D	4d	4f
.	4e	4g
=62	=62	=62
4D]	2.f	2.a
4E	.	.
4F	.	.
4G	8e	8g
.	8d	8f
2A	2c	2e
4D	[2f	2d
4E	.	.
=63	=63	=63
4F	2f]	1a
4G	.	.
4A	4e	.
4B	4d	.
2c	2e	2g
2d	[2f	2f
=64	=64	=64
1B-	4f]	1d
.	4e	.
.	1d	.
1A	.	1e
.	2c#	.
=65	=65	=65
2r	1d	1f
1d	.	.
.	1A	1e
2c	.	.
=66	=66	=66
2.B	2r	1d
.	1d	.
4A	.	.
4B	.	1r
4G	.	.
2A	2c	.
=67	=67	=67
1.G	2.B	0r
.	4A	.
.	4B	.
.	4G	.
2F	2A	.
=68	=68	=68
2.E	2G	2r
.	2c	1g
8D	.	.
8C	.	.
1D	2B	.
.	2A	2f
=69	=69	=69
1C	2c	2.e
.	1g	.
.	.	4d
1r	.	4e
.	.	4c
.	2f	2d
=70	=70	=70
2r	2.e	4c
.	.	4d
1c	.	4e
.	4d	4f
.	4e	1g
.	4c	.
2B	[2d	.
=71	=71	=71
2.A	4d]	2f
.	4c	.
.	1c	2.e
4G	.	.
4A	.	.
4F	.	4f
[2G	4B	2d
.	4A	.
=72	=72	=72
2G]	2B	2e
2F	2A	1d
1E	1G	.
.	.	2c#
=73	=73	=73
1D	2r	4d
.	.	4e
.	1d	4f
.	.	4d
1A	.	1e
.	2c	.
=74	=74	=74
2r	2.B	0d
1G	.	.
.	4A	.
.	4B	.
.	4G	.
2F	2A	.
=75	=75	=75
2.E	2G	0r
.	1g	.
4D	.	.
4E	.	.
4C	.	.
2D	2f	.
=76	=76	=76
2C	2.e	0r
1c	.	.
.	4d	.
.	4e	.
.	4c	.
2B	2d	.
=77	=77	=77
2.A	2c	0r
.	1f	.
4G	.	.
4A	.	.
4F	.	.
2G	2e	.
=78	=78	=78
2F	2d	2r
2E	2c	1g
1D	2B	.
.	[2A	2f
=79	=79	=79
2C	4A]	2.e
.	4G	.
2C	1c	.
.	.	4d
2C	.	4e
.	.	4c
2G	2B	2d
=80	=80	=80
0C	2.e	2.c
.	4d	4d
.	1c	1e
=81	=81	=81
[0G	[0B	[0d
=82	=82	=82
0G]	0B]	0d]
*-	*-	*-
!!!CDT: 1525/^1526/-1594/2/2
!!!OCY: Italia
!!!AGN: Mass (Parody)
!!!AST: renaissance, vocal
!!!ASW: Motet 1532 (Lasson)
!!!PWK: Masses, Book I
!!!RNB: Cadence finals: D
!!!YOR: Le Opere Complete, v. 1, p. 62
!!!YOO: Rome, Italy: Fratelli Scalera
!!!END: 1992//
!!!EED: John Miller
!!!YEC: Copyright 2000, John Miller
!!!YEN: United States of America
!!!YEM: Rights to all derivative electronic formats reserved.
!!!YEM: Refer to licensing agreement for further details.
!!!YEM: This file must be accompanied by the licensing agreement.
!!!YEM: A copy of the licensing agreement may be found at http://www.music-cog.ohio-state.edu/HumdrumDatabases/Palestrina/license.txt
!!!EMD: converted to Humdrum by Bret Aarden
